X: 14
T:Jerry Tarrant's Polka
M:2/4
L:1/8
C:Terence Winch
R:Polka
K:D
dA BA|FA AB/2c/2|dA BA|B,2 B,D/2E/2|!
FD ED|FD ED|FA, CE|1D2 D (3A/2B/2c/2:|2D3 a|!
|:a>a af|g>g ge|f>f fd|B2 Bd/2e/2|!
fd ed|fd ed|fd ce|1de fg:|2d2 d (3A/2B/2c/2|]!
